packages/web-icons/svgs/lightning.svg

<svg viewBox="0 0 48 49" xmlns="http://www.w3.org/2000/svg" class="ridi_icon"><path d="M45.1 25l1.7-2.4c1.3-1.8.7-4.3-1.2-5.4L43 15.9l.5-2.9c.4-2.2-1.2-4.2-3.4-4.3l-3-.1-.8-2.9c-.3-1.1-1.2-2-2.2-2.4-2.3 3.3-7 10-8.1 11.6 2.5 0 12 .1 12 .1.3 0 .6.2.8.5.1.1.1.2.1.4s-.1.4-.2.5c0 0-12.5 14.8-13.6 16.1.9.7 3 2.3 3 2.3.2.2.3.4.3.7v.1c0 .3-.2.6-.5.7l-11 4.4c-.3.1-.6.1-.8-.1-.2-.2-.4-.5-.3-.8L17.4 28c0-.3.2-.6.5-.7.3-.1.6-.1.8.1 0 0 2 1.6 2.9 2.3.8-1.2 5-7.7 6.3-9.5-2.4 0-12.1-.1-12.1-.1-.3 0-.6-.2-.7-.4-.1-.2-.1-.3-.1-.5s0-.3.1-.5l11.1-17c-1.5-1.2-3.7-1-5 .5l-1.9 2.2-2.7-1.1c-2-.9-4.4.2-4.9 2.4l-.8 2.8-3 .1c-2.2.2-3.8 2.2-3.4 4.4l.5 2.9-2.6 1.4c-1.9 1-2.5 3.6-1.2 5.4l1.7 2.4-1.7 2.4c-1.3 1.8-.7 4.3 1.2 5.4L5 34.3 4.5 37c-.4 2.2 1.2 4.2 3.4 4.3l3 .1.8 2.8c.6 2.1 2.9 3.2 4.9 2.4l2.7-1.2 1.9 2.2c1.4 1.7 4.1 1.7 5.5 0l1.9-2.2 2.7 1.2c2 .9 4.4-.2 4.9-2.4l.8-2.9 3-.1c2.2-.1 3.8-2.1 3.4-4.3l-.4-2.8 2.6-1.4c1.9-1 2.5-3.6 1.2-5.4L45.1 25z"/></svg>

<?xml version="1.0" encoding="UTF-8"?>
<svg width="48px" height="49px" viewBox="0 0 48 49" version="1.1" xmlns="http://www.w3.org/2000/svg">
  <!-- Generator: Sketch 41.2 (35397) - http://www.bohemiancoding.com/sketch -->
  <title>lightning</title>
  <desc>Created with Sketch.</desc>
  <defs></defs>
  <g id="Page-1" stroke="none" stroke-width="1" fill="none" fill-rule="evenodd">
    <g id="lightning" fill="#000000">
      <g id="레이어_1">
        <path d="M45.1,25 L46.8,22.6 C48.1,20.8 47.5,18.3 45.6,17.2 L43,15.9 L43.5,13 C43.9,10.8 42.3,8.8 40.1,8.7 L37.1,8.6 L36.3,5.7 C36,4.6 35.1,3.7 34.1,3.3 C31.8,6.6 27.1,13.3 26,14.9 C28.5,14.9 38,15 38,15 C38.3,15 38.6,15.2 38.8,15.5 C38.9,15.6 38.9,15.7 38.9,15.9 C38.9,16.1 38.8,16.3 38.7,16.4 C38.7,16.4 26.2,31.2 25.1,32.5 C26,33.2 28.1,34.8 28.1,34.8 C28.3,35 28.4,35.2 28.4,35.5 L28.4,35.6 C28.4,35.9 28.2,36.2 27.9,36.3 L16.9,40.7 C16.6,40.8 16.3,40.8 16.1,40.6 C15.9,40.4 15.7,40.1 15.8,39.8 L17.4,28 C17.4,27.7 17.6,27.4 17.9,27.3 C18.2,27.2 18.5,27.2 18.7,27.4 C18.7,27.4 20.7,29 21.6,29.7 C22.4,28.5 26.6,22 27.9,20.2 C25.5,20.2 15.8,20.1 15.8,20.1 C15.5,20.1 15.2,19.9 15.1,19.7 C15,19.5 15,19.4 15,19.2 C15,19 15,18.9 15.1,18.7 L26.2,1.7 C24.7,0.5 22.5,0.7 21.2,2.2 L19.3,4.4 L16.6,3.3 C14.6,2.4 12.2,3.5 11.7,5.7 L10.9,8.5 L7.9,8.6 C5.7,8.8 4.1,10.8 4.5,13 L5,15.9 L2.4,17.3 C0.5,18.3 -0.1,20.9 1.2,22.7 L2.9,25.1 L1.2,27.5 C-0.1,29.3 0.5,31.8 2.4,32.9 L5,34.3 L4.5,37 C4.1,39.2 5.7,41.2 7.9,41.3 L10.9,41.4 L11.7,44.2 C12.3,46.3 14.6,47.4 16.6,46.6 L19.3,45.4 L21.2,47.6 C22.6,49.3 25.3,49.3 26.7,47.6 L28.6,45.4 L31.3,46.6 C33.3,47.5 35.7,46.4 36.2,44.2 L37,41.3 L40,41.2 C42.2,41.1 43.8,39.1 43.4,36.9 L43,34.1 L45.6,32.7 C47.5,31.7 48.1,29.1 46.8,27.3 L45.1,25 L45.1,25 Z" id="Shape"></path>
      </g>
    </g>
  </g>
</svg>
